public/sprite/sidebar.svg

<svg width="0" height="0" class="hidden"><symbol viewBox="0 0 20 20" xmlns="http://www.w3.org/2000/svg" id="about"><g clip-path="url(#clip0_16_4)"><path d="M8.33333 6.66667H13.3333V7.77778H8.33333V6.66667Z"></path><path d="M8.33333 8.88889H13.3333V10H8.33333V8.88889Z"></path><path d="M8.33333 11.1111H13.3333V12.2222H8.33333V11.1111Z"></path><path d="M8.33333 13.3333H13.3333V14.4444H8.33333V13.3333Z"></path><path d="M6.11111 4.44444H7.22222V5.55555H6.11111V4.44444Z"></path><path d="M6.11111 6.66667H7.22222V7.77778H6.11111V6.66667Z"></path><path d="M6.11111 8.88889H7.22222V10H6.11111V8.88889Z"></path><path d="M6.11111 11.1111H7.22222V12.2222H6.11111V11.1111Z"></path><path d="M6.11111 13.3333H7.22222V14.4444H6.11111V13.3333Z"></path><path d="M8.33333 4.44444V5.55555H13.1444C12.9258 5.21155 12.7592 4.83714 12.65 4.44444H8.33333Z"></path><path d="M15.5555 7.34445V17.7778H4.44444V2.22223H12.6556C12.763 1.82984 12.9278 1.45544 13.1444 1.11111H4.44444C4.14975 1.11111 3.86714 1.22818 3.65877 1.43655C3.45039 1.64493 3.33333 1.92754 3.33333 2.22223V17.7778C3.33333 18.0725 3.45039 18.3551 3.65877 18.5635C3.86714 18.7718 4.14975 18.8889 4.44444 18.8889H15.5555C15.8502 18.8889 16.1328 18.7718 16.3412 18.5635C16.5496 18.3551 16.6667 18.0725 16.6667 17.7778V7.5C16.291 7.49855 15.9172 7.44622 15.5555 7.34445Z"></path><path d="M16.6667 6.11111C18.2008 6.11111 19.4444 4.86746 19.4444 3.33333C19.4444 1.79921 18.2008 0.555557 16.6667 0.555557C15.1325 0.555557 13.8889 1.79921 13.8889 3.33333C13.8889 4.86746 15.1325 6.11111 16.6667 6.11111Z"></path></g><defs><clipPath id="clip0_16_4"><rect width="20" height="20"></rect></clipPath></defs></symbol><symbol viewBox="0 0 20 20" fill="none" xmlns="http://www.w3.org/2000/svg" id="articles"><path d="M18.8889 20H1.11111C0.816426 20 0.533811 19.8946 0.325437 19.7071C0.117063 19.5196 0 19.2652 0 19V1C0 0.734784 0.117063 0.48043 0.325437 0.292893C0.533811 0.105357 0.816426 0 1.11111 0H18.8889C19.1836 0 19.4662 0.105357 19.6746 0.292893C19.8829 0.48043 20 0.734784 20 1V19C20 19.2652 19.8829 19.5196 19.6746 19.7071C19.4662 19.8946 19.1836 20 18.8889 20ZM17.7778 18V2H2.22222V18H17.7778ZM4.44444 4H8.88889V8H4.44444V4ZM4.44444 10H15.5556V12H4.44444V10ZM4.44444 14H15.5556V16H4.44444V14ZM11.1111 5H15.5556V7H11.1111V5Z" fill="currentColor"></path></symbol><symbol viewBox="0 0 20 20" xmlns="http://www.w3.org/2000/svg" id="home"><path d="M0.414747 9.83945L8.93886 0.818743L9.51022 0.213781C9.64041 0.0768506 9.81646 0 9.99996 0C10.1835 0 10.3595 0.0768506 10.4897 0.213781L19.5852 9.83945C19.7186 9.98014 19.824 10.1477 19.8952 10.3322C19.9665 10.5168 20.0021 10.7146 19.9999 10.9139C19.9911 11.7361 19.3447 12.3924 18.5682 12.3924H17.6306V20H2.36929V12.3924H1.41187C1.03464 12.3924 0.679472 12.2359 0.412542 11.9533C0.281107 11.8146 0.176968 11.6496 0.106155 11.468C0.0353432 11.2864 -0.000732422 11.0917 1.33514e-05 10.8952C1.33514e-05 10.4981 0.147818 10.1221 0.414747 9.83945ZM8.76458 18.3183H11.2353V13.5533H8.76458V18.3183ZM3.95764 10.7107V18.3183H7.35272V12.9927C7.35272 12.4765 7.7476 12.0584 8.23513 12.0584H11.7648C12.2523 12.0584 12.6472 12.4765 12.6472 12.9927V18.3183H16.0423V10.7107H18.1601L9.99776 2.07538L9.48816 2.61494L1.83764 10.7107H3.95764Z"></path></symbol><symbol viewBox="0 0 17 20" fill="none" xmlns="http://www.w3.org/2000/svg" id="profile"><path d="M10.0742 8.27586H14.4815V9.65517H10.0742V8.27586ZM10.0742 4.82759H17V6.2069H10.0742V4.82759ZM10.0742 1.37931H17V2.75862H10.0742V1.37931ZM5.03726 20H2.51879C2.18513 19.9989 1.86541 19.8532 1.62948 19.5948C1.39354 19.3364 1.26055 18.9862 1.25955 18.6207V13.7931C0.92589 13.792 0.606177 13.6463 0.37024 13.3879C0.134303 13.1295 0.00131401 12.7793 0.000317501 12.4138V8.27586C-0.00429592 8.00277 0.0414087 7.73147 0.134699 7.47816C0.22799 7.22486 0.36695 6.99476 0.543274 6.80163C0.719598 6.60849 0.929665 6.45628 1.16092 6.35409C1.39217 6.25191 1.63985 6.20184 1.88917 6.2069H5.66688C5.9162 6.20184 6.16388 6.25191 6.39513 6.35409C6.62639 6.45628 6.83645 6.60849 7.01278 6.80163C7.1891 6.99476 7.32806 7.22486 7.42135 7.47816C7.51464 7.73147 7.56035 8.00277 7.55573 8.27586V12.4138C7.55474 12.7793 7.42175 13.1295 7.18581 13.3879C6.94987 13.6463 6.63016 13.792 6.2965 13.7931V18.6207C6.2955 18.9862 6.16251 19.3364 5.92657 19.5948C5.69064 19.8532 5.37092 19.9989 5.03726 20ZM1.88917 7.58621C1.80517 7.58068 1.72106 7.59473 1.64238 7.62743C1.5637 7.66013 1.49225 7.71074 1.43275 7.77592C1.37325 7.8411 1.32704 7.91936 1.29719 8.00554C1.26733 8.09172 1.2545 8.18385 1.25955 8.27586V12.4138H2.51879V18.6207H5.03726V12.4138H6.2965V8.27586C6.30155 8.18385 6.28872 8.09172 6.25886 8.00554C6.22901 7.91936 6.1828 7.8411 6.1233 7.77592C6.0638 7.71074 5.99235 7.66013 5.91367 7.62743C5.83499 7.59473 5.75088 7.58068 5.66688 7.58621H1.88917ZM3.77802 5.51724C3.27992 5.51724 2.793 5.35545 2.37884 5.05233C1.96468 4.74921 1.64188 4.31837 1.45126 3.8143C1.26064 3.31023 1.21077 2.75556 1.30795 2.22044C1.40512 1.68532 1.64498 1.19378 1.9972 0.807983C2.34941 0.422183 2.79816 0.159449 3.2867 0.0530074C3.77523 -0.0534346 4.28161 0.00119526 4.7418 0.209989C5.20199 0.418782 5.59532 0.772361 5.87206 1.22601C6.14879 1.67967 6.2965 2.21302 6.2965 2.75862C6.2945 3.48958 6.02852 4.18998 5.55665 4.70685C5.08478 5.22372 4.44535 5.51506 3.77802 5.51724ZM3.77802 1.37931C3.52897 1.37931 3.28551 1.46021 3.07843 1.61177C2.87135 1.76333 2.70995 1.97875 2.61464 2.23078C2.51933 2.48282 2.4944 2.76015 2.54298 3.02771C2.59157 3.29527 2.7115 3.54104 2.88761 3.73394C3.06372 3.92684 3.28809 4.05821 3.53236 4.11143C3.77663 4.16465 4.02982 4.13734 4.25991 4.03294C4.49001 3.92854 4.68667 3.75175 4.82504 3.52493C4.96341 3.2981 5.03726 3.03142 5.03726 2.75862C5.03626 2.39314 4.90328 2.04294 4.66734 1.78451C4.4314 1.52607 4.11169 1.3804 3.77802 1.37931Z" fill="currentColor"></path></symbol></svg>

<svg width="0" height="0"><symbol xmlns="http://www.w3.org/2000/svg" id="about" viewBox="0 0 20 20"><g clip-path="url(#a)"><path d="M8.333 6.667h5v1.11h-5v-1.11Zm0 2.222h5V10h-5V8.889Zm0 2.222h5v1.111h-5v-1.11Zm0 2.222h5v1.111h-5v-1.11ZM6.111 4.444h1.111v1.112h-1.11V4.444Zm0 2.223h1.111v1.11h-1.11v-1.11Zm0 2.222h1.111V10h-1.11V8.889Zm0 2.222h1.111v1.111h-1.11v-1.11Zm0 2.222h1.111v1.111h-1.11v-1.11Zm2.222-8.889v1.112h4.811a4.14 4.14 0 0 1-.494-1.112H8.333Z"/><path d="M15.556 7.344v10.434H4.444V2.222h8.212a4.14 4.14 0 0 1 .488-1.11h-8.7a1.111 1.111 0 0 0-1.11 1.11v15.556a1.111 1.111 0 0 0 1.11 1.11h11.111a1.111 1.111 0 0 0 1.112-1.11V7.5a4.162 4.162 0 0 1-1.112-.156Z"/><path d="M16.667 6.111a2.778 2.778 0 1 0 0-5.555 2.778 2.778 0 0 0 0 5.555Z"/></g><defs><clipPath id="a"><path d="M0 0h20v20H0z"/></clipPath></defs></symbol><symbol xmlns="http://www.w3.org/2000/svg" id="articles" fill="none" viewBox="0 0 20 20"><path fill="currentColor" d="M18.889 20H1.11c-.295 0-.577-.105-.786-.293A.952.952 0 0 1 0 19V1C0 .735.117.48.325.293.534.105.816 0 1.111 0H18.89c.295 0 .577.105.786.293A.952.952 0 0 1 20 1v18c0 .265-.117.52-.325.707a1.177 1.177 0 0 1-.786.293Zm-1.111-2V2H2.222v16h15.556ZM4.444 4H8.89v4H4.444V4Zm0 6h11.112v2H4.444v-2Zm0 4h11.112v2H4.444v-2Zm6.667-9h4.445v2H11.11V5Z"/></symbol><symbol xmlns="http://www.w3.org/2000/svg" id="home" viewBox="0 0 20 20"><path d="M.415 9.84 8.939.818 9.51.214A.676.676 0 0 1 10 0c.184 0 .36.077.49.214l9.095 9.625c.134.141.239.309.31.493.072.185.107.383.105.582-.009.822-.655 1.478-1.432 1.478h-.937V20H2.369v-7.608h-.957c-.377 0-.733-.156-1-.439a1.494 1.494 0 0 1-.306-.485A1.562 1.562 0 0 1 0 10.895c0-.397.148-.773.415-1.056Zm8.35 8.478h2.47v-4.765h-2.47v4.765Zm-4.807-7.607v7.607h3.395v-5.325c0-.517.395-.935.882-.935h3.53c.487 0 .882.418.882.935v5.325h3.395v-7.607h2.118L9.998 2.075l-.51.54-7.65 8.096h2.12Z"/></symbol><symbol xmlns="http://www.w3.org/2000/svg" id="profile" fill="none" viewBox="0 0 17 20"><path fill="currentColor" d="M10.074 8.276h4.408v1.38h-4.408v-1.38Zm0-3.448H17v1.379h-6.926v-1.38Zm0-3.449H17v1.38h-6.926v-1.38ZM5.037 20H2.52a1.21 1.21 0 0 1-.89-.405 1.453 1.453 0 0 1-.37-.974v-4.828a1.21 1.21 0 0 1-.889-.405 1.453 1.453 0 0 1-.37-.974V8.276a2.204 2.204 0 0 1 .135-.798c.093-.253.232-.483.408-.676.177-.194.387-.346.618-.448.231-.102.479-.152.728-.147h3.778c.25-.005.497.045.728.147.231.102.441.254.618.448.176.193.315.423.408.676.094.253.14.525.135.798v4.138a1.453 1.453 0 0 1-.37.974 1.21 1.21 0 0 1-.89.405v4.828a1.453 1.453 0 0 1-.37.974 1.21 1.21 0 0 1-.889.405ZM1.89 7.586a.548.548 0 0 0-.247.041.592.592 0 0 0-.21.149.661.661 0 0 0-.135.23.708.708 0 0 0-.037.27v4.138H2.52v6.207h2.518v-6.207h1.26V8.276a.708.708 0 0 0-.038-.27.661.661 0 0 0-.136-.23.592.592 0 0 0-.21-.149.548.548 0 0 0-.246-.04H1.889Zm1.889-2.069c-.498 0-.985-.162-1.4-.465a2.72 2.72 0 0 1-.927-1.238 3.004 3.004 0 0 1-.143-1.594 2.849 2.849 0 0 1 .69-1.412A2.459 2.459 0 0 1 3.286.053 2.316 2.316 0 0 1 4.742.21c.46.209.853.562 1.13 1.016.277.454.425.987.425 1.533a2.906 2.906 0 0 1-.74 1.948 2.42 2.42 0 0 1-1.779.81Zm0-4.138c-.249 0-.492.081-.7.233a1.36 1.36 0 0 0-.463.619c-.096.252-.12.53-.072.797.049.267.168.513.345.706.176.193.4.324.644.377.245.054.498.026.728-.078.23-.104.427-.281.565-.508a1.48 1.48 0 0 0 .212-.766 1.453 1.453 0 0 0-.37-.974 1.21 1.21 0 0 0-.889-.406Z"/></symbol></svg>
